X:0666
T:The Ring Dove.
M:6/8
L:1/8
Q:3/8=120
I: :: || ||
Z:Jack Campin * www.campin.me.uk * 2009
K:D
d|dAA  fdd |aff   fad     |gee  ecc |   ded  d2:|
a|ad'a ad'a|d'bb Tb2(a/b/)|bd'a bd'f|{a}gee Te3 |
  dAA  fdd |aff   fad     |agg  gec |   ddd  d2||
a|ad'a ad'a|d'bb Tb2b     |abc' d'af|   gee  e2
a|ad'a ad'a|d'bb  b2b     |aff  gfc |   edd  d2|]
<end>
<start>
